X:1
T:Valse : L'auberge de la double cluse
E:12
Z:Roger Ngaret (Novembre 98)
R:
C:Emmanuel Pariselle
S:
A:France
K:C
T:1re voix
M:3/4
L:1/16
K:C
[e2c2] [f2d2] | "C"[g4e4] [g2e2] [g2e2] [f2d2] [e2c2] | 
"G"[f2d2] [f4d4] [e2c2] [B2D2] | "Am"[e4c4] [e2c2] [e2c2] [d2B2] [c2A2] |
"Em"[e8c8] [d4B4] | "F"[c2A2] [c2A2] [c2A2] [d2B2] [e2c2] [f2d2] |
"C"[g4e4] [e4c4] [c4G4] | "F"[c2A2] [c2A2] [c2A2] [d2B2] [e2c2] [f2d2] |
"G"[d8B8] |]
T:2ime voix
M:3/4
L:1/16
K:C
[c2E2] [d2F2] | "C"[e4G4] [e2G2] [e2G2] [d2F2] [c2E2] |
"G"[d4F4] [d4F4] [c2E2] [B2D2] | "Am"[c4E4] [c2E2] [c2E2] [B2D2] [A2C2] |
"Em"[G12E12] | "F"[A,2F12] A,2 A,2B,2 C2D2 |
"C"[c4E4] [G4C4] [E4G,4] | "F"[A,2F12] A,2 A,2B,2 C2D2 | "G"[B8D8] |]
